icons/Yaru-remix-dark/scalable/categories/emoji-food-symbolic.svg

<?xml version="1.0" encoding="UTF-8" standalone="no"?>
<svg
   xmlns:dc="http://purl.org/dc/elements/1.1/"
   xmlns:cc="http://creativecommons.org/ns#"
   xmlns:rdf="http://www.w3.org/1999/02/22-rdf-syntax-ns#"
   xmlns:svg="http://www.w3.org/2000/svg"
   xmlns="http://www.w3.org/2000/svg"
   xmlns:sodipodi="http://sodipodi.sourceforge.net/DTD/sodipodi-0.dtd"
   xmlns:inkscape="http://www.inkscape.org/namespaces/inkscape"
   height="16"
   width="16"
   version="1.1"
   id="svg4"
   sodipodi:docname="emoji-food-symbolic.svg"
   inkscape:version="1.0.1 (3bc2e813f5, 2020-09-07)">
  <metadata
     id="metadata10">
    <rdf:RDF>
      <cc:Work
         rdf:about="">
        <dc:format>image/svg+xml</dc:format>
        <dc:type
           rdf:resource="http://purl.org/dc/dcmitype/StillImage" />
        <dc:title />
      </cc:Work>
    </rdf:RDF>
  </metadata>
  <defs
     id="defs8" />
  <sodipodi:namedview
     pagecolor="#ffffff"
     bordercolor="#666666"
     borderopacity="1"
     objecttolerance="10"
     gridtolerance="10"
     guidetolerance="10"
     inkscape:pageopacity="0"
     inkscape:pageshadow="2"
     inkscape:window-width="1920"
     inkscape:window-height="1011"
     id="namedview6"
     showgrid="true"
     inkscape:object-paths="true"
     inkscape:snap-intersection-paths="true"
     inkscape:snap-smooth-nodes="true"
     inkscape:snap-midpoints="true"
     inkscape:zoom="32"
     inkscape:cx="13.178824"
     inkscape:cy="9.4035963"
     inkscape:window-x="1920"
     inkscape:window-y="32"
     inkscape:window-maximized="1"
     inkscape:current-layer="svg4"
     inkscape:document-rotation="0"
     borderlayer="true">
    <inkscape:grid
       type="xygrid"
       id="grid835"
       dotted="false"
       spacingx="1"
       spacingy="1"
       empspacing="5" />
    <inkscape:grid
       type="xygrid"
       id="grid869"
       dotted="true"
       spacingx="0.5"
       spacingy="0.5"
       empspacing="10" />
  </sodipodi:namedview>
  <rect
     style="fill:#808080;fill-opacity:1;fill-rule:evenodd;stroke-width:0.75;stroke-linecap:square;stroke-linejoin:round"
     id="rect847"
     width="2"
     height="1"
     x="-8.9453125"
     y="7.8125" />
  <rect
     style="fill:#808080;fill-opacity:1;fill-rule:evenodd;stroke-width:0.75;stroke-linecap:square;stroke-linejoin:round"
     id="rect849"
     width="2.5"
     height="1"
     x="-9.9453125"
     y="9.8125" />
  <rect
     style="fill:#808080;fill-opacity:1;fill-rule:evenodd;stroke-width:0.75;stroke-linecap:square;stroke-linejoin:round"
     id="rect851"
     width="2.5"
     height="1"
     x="-9.9453125"
     y="11.8125" />
  <path
     id="path857"
     style="fill:#808080;fill-opacity:1;fill-rule:evenodd;stroke-width:0.75;stroke-linecap:square;stroke-linejoin:round"
     d="m -8.9453125,5.8125 a 1.5,1.5 0 0 0 -1.5000005,1.5 1.5,1.5 0 0 0 1.5000005,1.5 v -1 a 0.5,0.5 0 0 1 -0.5,-0.5 0.5,0.5 0 0 1 0.488281,-0.5 0.5,0.5 0 0 1 0.011719,0 z" />
  <path
     id="path868"
     style="fill:#808080;fill-opacity:1;fill-rule:evenodd;stroke-width:0.75;stroke-linecap:square;stroke-linejoin:round"
     d="m -9.9453125,7.8125 a 1.5,1.5 0 0 0 -1.5000005,1.5 1.5,1.5 0 0 0 1.5000005,1.5 V 9.8124996 A 0.5,0.5 0 0 1 -10.445313,9.3125 a 0.5,0.5 0 0 1 0.4882815,-0.5 0.5,0.5 0 0 1 0.01172,0 z" />
  <path
     id="path870"
     style="fill:#808080;fill-opacity:1;fill-rule:evenodd;stroke-width:0.75;stroke-linecap:square;stroke-linejoin:round"
     d="m -10.445313,9.8125 a 1.5,1.5 0 0 0 -1.5,1.5 1.5,1.5 0 0 0 1.5,1.5 v -1 a 0.5,0.5 0 0 1 -0.5,-0.5 0.5,0.5 0 0 1 0.488282,-0.5 0.5,0.5 0 0 1 0.01172,0 z" />
  <rect
     style="fill:#808080;fill-opacity:1;fill-rule:evenodd;stroke-width:0.75;stroke-linecap:square;stroke-linejoin:round"
     id="rect872"
     width="2"
     height="0.5"
     x="-10.445312"
     y="8.3125" />
  <path
     id="path874"
     style="fill:#808080;fill-opacity:1;fill-rule:evenodd;stroke-width:0.75;stroke-linecap:square;stroke-linejoin:round"
     d="m -10.945313,11.8125 a 1.5,1.5 0 0 0 -1.5,1.5 1.5,1.5 0 0 0 1.5,1.5 v -1 a 0.5,0.5 0 0 1 -0.5,-0.5 0.5,0.5 0 0 1 0.488282,-0.5 0.5,0.5 0 0 1 0.01172,0 z" />
  <rect
     style="fill:#808080;fill-opacity:1;fill-rule:evenodd;stroke-width:0.75;stroke-linecap:square;stroke-linejoin:round"
     id="rect876"
     width="1"
     height="0.5"
     x="-10.445312"
     y="10.3125" />
  <rect
     style="fill:#808080;fill-opacity:1;fill-rule:evenodd;stroke-width:0.75;stroke-linecap:square;stroke-linejoin:round"
     id="rect878"
     width="1"
     height="1"
     x="-10.445312"
     y="11.8125" />
  <rect
     style="fill:#808080;fill-opacity:1;fill-rule:evenodd;stroke-width:0.75;stroke-linecap:square;stroke-linejoin:round"
     id="rect880"
     width="0.5"
     height="0.5"
     x="-10.945312"
     y="12.3125" />
  <path
     style="color:#000000;font-style:normal;font-variant:normal;font-weight:normal;font-stretch:normal;font-size:medium;line-height:normal;font-family:sans-serif;font-variant-ligatures:normal;font-variant-position:normal;font-variant-caps:normal;font-variant-numeric:normal;font-variant-alternates:normal;font-variant-east-asian:normal;font-feature-settings:normal;font-variation-settings:normal;text-indent:0;text-align:start;text-decoration:none;text-decoration-line:none;text-decoration-style:solid;text-decoration-color:#000000;letter-spacing:normal;word-spacing:normal;text-transform:none;writing-mode:lr-tb;direction:ltr;text-orientation:mixed;dominant-baseline:auto;baseline-shift:baseline;text-anchor:start;white-space:normal;shape-padding:0;shape-margin:0;inline-size:0;clip-rule:nonzero;display:inline;overflow:visible;visibility:visible;opacity:1;isolation:auto;mix-blend-mode:normal;color-interpolation:sRGB;color-interpolation-filters:linearRGB;solid-color:#000000;solid-opacity:1;vector-effect:none;fill:#808080;fill-opacity:1;fill-rule:nonzero;stroke:none;stroke-width:1px;stroke-linecap:butt;stroke-linejoin:round;stroke-miterlimit:4;stroke-dasharray:none;stroke-dashoffset:0;stroke-opacity:1;color-rendering:auto;image-rendering:auto;shape-rendering:auto;text-rendering:auto;enable-background:accumulate;stop-color:#000000;stop-opacity:1"
     d="m -12.945313,0.8125 h -0.37 c 0,0 -0.06545,0.2244254 -0.104609,0.3417969 l -1,3 C -14.883152,5.5439885 -15.355222,6.4508376 -16,7 c -0.644778,0.5491624 -1.509421,0.8125 -2.945312,0.8125 h -0.5 v 0.5 4 c 0,0.805556 0.130063,1.462094 0.583984,1.916016 0.453921,0.453921 1.11046,0.583984 1.916016,0.583984 h 6.9999995 c 0.805556,0 1.534059,-0.124495 2.103516,-0.53125 0.569456,-0.406755 0.896484,-1.107639 0.896484,-1.96875 l -0.0039,0.0625 0.5,-4 c 0.0026,-0.020731 0.0039,-0.041605 0.0039,-0.0625 0,-0.8055556 -0.130063,-1.4620943 -0.583984,-1.9160156 C -7.4832185,5.942563 -8.1397565,5.8125 -8.9453125,5.8125 h -2.3378905 l 0.818359,-2.8632812 c 0.178241,-0.6238438 0.0078,-1.2082843 -0.3125,-1.5761719 C -11.097631,1.0051593 -11.515821,0.8125 -11.945313,0.8125 Z m 0.361329,1 h 0.638671 c 0.07051,0 0.29067,0.075066 0.414063,0.2167969 0.123393,0.1417314 0.201949,0.3088042 0.105469,0.6464843 l -1,3.5 c -0.0484,0.1703613 -0.01953,0.6367188 -0.01953,0.6367188 h 0.5 3.0000005 c 0.694444,0 1.037906,0.119937 1.208984,0.2910156 0.16971,0.1697096 0.287162,0.5158937 0.289063,1.1992188 L -7.9414065,12.25 c -0.0026,0.02073 -0.0039,0.04161 -0.0039,0.0625 0,0.638889 -0.172972,0.938005 -0.478516,1.15625 -0.305549,0.218245 -0.827046,0.34375 -1.52149,0.34375 h -6.9999995 c -0.694445,0 -1.037906,-0.119937 -1.208985,-0.291016 -0.171078,-0.171078 -0.291015,-0.51454 -0.291015,-1.208984 V 8.7519531 c 1.289603,-0.068218 2.331124,-0.342654 3.093749,-0.9921875 0.868051,-0.7393251 1.395407,-1.8327042 1.88086,-3.2890625 z"
     id="path886"
     sodipodi:nodetypes="cccsscccsssssccccssccssccssscccsscccssssscscc" />
  <path
     id="rect855"
     style="fill:#808080;fill-rule:evenodd;stroke-width:0.75;stroke-linecap:round;stroke-linejoin:round"
     d="M 2.453125 1 C 2.2020938 1 2 1.446 2 2 L 2 3 L 2 4.5 C 2 6.2004396 2.8568042 7.6104943 4 7.9316406 L 4 9 C 3.446 9 3 9.446 3 10 L 3 15 C 3 15.554 3.446 16 4 16 L 5 16 C 5.554 16 6 15.554 6 15 L 6 10 C 6 9.446 5.554 9 5 9 L 5 7.9316406 C 6.1431975 7.6104943 7 6.2004396 7 4.5 L 7 3 L 7 2 C 7 1.446 6.7979062 1 6.546875 1 L 6.453125 1 C 6.2020938 1 6 1.446 6 2 L 6 3 L 6 5 C 6 5.554 5.777 6 5.5 6 C 5.223 6 5 5.554 5 5 L 5 3 L 5 2 C 5 1.446 4.7979062 1 4.546875 1 L 4.453125 1 C 4.2020937 1 4 1.446 4 2 L 4 3 L 4 5 C 4 5.554 3.777 6 3.5 6 C 3.223 6 3 5.554 3 5 L 3 3 L 3 2 C 3 1.446 2.7979063 1 2.546875 1 L 2.453125 1 z " />
  <path
     id="rect893"
     style="fill:#808080;fill-rule:evenodd;stroke-width:0.75;stroke-linecap:round;stroke-linejoin:round"
     d="M 13 1 C 12.76324 1 12.555684 1.0939111 12.384766 1.2304688 C 10.79638 2.3804194 10 7.7720628 10 10 C 10 11 11 11 12 11 L 12 15.007812 C 12 15.561813 12.446055 16.007812 13 16.007812 C 13.553944 16.007812 14 15.561813 14 15.007812 L 14 2 C 14 1.446 13.553944 1 13 1 z " />
</svg>

<svg xmlns="http://www.w3.org/2000/svg" height="16" width="16">
    <rect width="2" height="1" x="-8.945" y="7.813" fill="gray" fill-rule="evenodd"/>
    <rect width="2.5" height="1" x="-9.945" y="9.813" fill="gray" fill-rule="evenodd"/>
    <rect width="2.5" height="1" x="-9.945" y="11.813" fill="gray" fill-rule="evenodd"/>
    <path d="M-8.945 5.813a1.5 1.5 0 00-1.5 1.5 1.5 1.5 0 001.5 1.5v-1a.5.5 0 01-.5-.5.5.5 0 01.488-.5.5.5 0 01.012 0z" fill="gray" fill-rule="evenodd"/>
    <path d="M-9.945 7.813a1.5 1.5 0 00-1.5 1.5 1.5 1.5 0 001.5 1.5v-1a.5.5 0 01-.5-.5.5.5 0 01.488-.5.5.5 0 01.012 0z" fill="gray" fill-rule="evenodd"/>
    <path d="M-10.445 9.813a1.5 1.5 0 00-1.5 1.5 1.5 1.5 0 001.5 1.5v-1a.5.5 0 01-.5-.5.5.5 0 01.488-.5.5.5 0 01.012 0z" fill="gray" fill-rule="evenodd"/>
    <rect width="2" height=".5" x="-10.445" y="8.313" fill="gray" fill-rule="evenodd"/>
    <path d="M-10.945 11.813a1.5 1.5 0 00-1.5 1.5 1.5 1.5 0 001.5 1.5v-1a.5.5 0 01-.5-.5.5.5 0 01.488-.5.5.5 0 01.012 0z" fill="gray" fill-rule="evenodd"/>
    <rect width="1" height=".5" x="-10.445" y="10.313" fill="gray" fill-rule="evenodd"/>
    <rect width="1" height="1" x="-10.445" y="11.813" fill="gray" fill-rule="evenodd"/>
    <rect width=".5" height=".5" x="-10.945" y="12.313" fill="gray" fill-rule="evenodd"/>
    <path style="line-height:normal;font-variant-ligatures:normal;font-variant-position:normal;font-variant-caps:normal;font-variant-numeric:normal;font-variant-alternates:normal;font-variant-east-asian:normal;font-feature-settings:normal;font-variation-settings:normal;text-indent:0;text-align:start;text-decoration-line:none;text-decoration-style:solid;text-decoration-color:#000;text-transform:none;text-orientation:mixed;white-space:normal;shape-padding:0;shape-margin:0;inline-size:0;isolation:auto;mix-blend-mode:normal;solid-color:#000;solid-opacity:1" d="M-12.945.813h-.37s-.066.224-.105.341l-1 3C-14.883 5.544-15.355 6.451-16 7c-.645.55-1.51.813-2.945.813h-.5v4.5c0 .805.13 1.462.584 1.916.454.453 1.11.583 1.916.583h7c.805 0 1.534-.124 2.103-.53.57-.408.897-1.108.897-1.97l-.004.063.5-4a.502.502 0 00.004-.063c0-.805-.13-1.462-.584-1.916-.454-.453-1.11-.583-1.916-.583h-2.338l.818-2.864c.178-.624.008-1.208-.312-1.576-.32-.368-.739-.56-1.168-.56zm.361 1h.639c.07 0 .29.075.414.216.123.142.202.31.105.647l-1 3.5c-.048.17-.02.636-.02.636h3.5c.695 0 1.039.12 1.21.292.17.17.287.515.289 1.199l-.494 3.947a.502.502 0 00-.004.063c0 .638-.173.938-.479 1.156-.305.218-.827.344-1.521.344h-7c-.695 0-1.038-.12-1.21-.292-.17-.17-.29-.514-.29-1.209v-3.56c1.29-.068 2.33-.343 3.093-.992.868-.74 1.396-1.833 1.881-3.29z" color="#000" font-weight="400" font-family="sans-serif" overflow="visible" fill="gray"/>
    <path d="M2.453 1C2.203 1 2 1.446 2 2v2.5c0 1.7.857 3.11 2 3.432V9c-.554 0-1 .446-1 1v5c0 .554.446 1 1 1h1c.554 0 1-.446 1-1v-5c0-.554-.446-1-1-1V7.932C6.143 7.61 7 6.2 7 4.5V2c0-.554-.202-1-.453-1h-.094C6.203 1 6 1.446 6 2v3c0 .554-.223 1-.5 1S5 5.554 5 5V2c0-.554-.202-1-.453-1h-.094C4.203 1 4 1.446 4 2v3c0 .554-.223 1-.5 1S3 5.554 3 5V2c0-.554-.202-1-.453-1h-.094zM13 1a.981.981 0 00-.615.23C10.796 2.38 10 7.772 10 10c0 1 1 1 2 1v4.008c0 .554.446 1 1 1s1-.446 1-1V2c0-.554-.446-1-1-1z" fill="gray" fill-rule="evenodd"/>
</svg>
